Obsidian-SemiLight/actions/24s/object-order-back.svg

<svg viewBox="0 0 24 24" xmlns="http://www.w3.org/2000/svg"><path d="m7 4v3.9394531 8.1523439l-2.28125-2.246094-.71875.708985 3.28125 3.230468.21875.214844.21875-.214844 3.28125-3.230468-.71875-.708985-2.28125 2.246094v-8.1523439-3.9394531zm4 1v1h9v-1zm6 2v1h3v-1zm-4 2v1h7v-1zm-2 2v1h9v-1zm5 2v1h4v-1zm-3 2v1h7v-1zm-1 2v1h8v-1zm-8 2v1h16v-1z" fill="#4d4d4d"/></svg>

<svg xmlns="http://www.w3.org/2000/svg" viewBox="0 0 24 24">
  <defs id="defs3051">
    <style type="text/css" id="current-color-scheme">
      .ColorScheme-Text {
        color:#4d4d4d;
      }
      </style>
  </defs>
 <path style="fill:currentColor;fill-opacity:1;stroke:none" 
     d="M 7 4 L 7 7.9394531 L 7 16.091797 L 4.71875 13.845703 L 4 14.554688 L 7.28125 17.785156 L 7.5 18 L 7.71875 17.785156 L 11 14.554688 L 10.28125 13.845703 L 8 16.091797 L 8 7.9394531 L 8 4 L 7 4 z M 11 5 L 11 6 L 20 6 L 20 5 L 11 5 z M 17 7 L 17 8 L 20 8 L 20 7 L 17 7 z M 13 9 L 13 10 L 20 10 L 20 9 L 13 9 z M 11 11 L 11 12 L 20 12 L 20 11 L 11 11 z M 16 13 L 16 14 L 20 14 L 20 13 L 16 13 z M 13 15 L 13 16 L 20 16 L 20 15 L 13 15 z M 12 17 L 12 18 L 20 18 L 20 17 L 12 17 z M 4 19 L 4 20 L 20 20 L 20 19 L 4 19 z "
     class="ColorScheme-Text"
     />
</svg>
